X:1
T:M. L. Bradshaw
T:Anna Shipton
T:Thou, Lord, Knowest
%%score { ( 1 2 ) | ( 3 4 ) }
L:1/8
M:4/4
K:F
V:1 treble 
V:2 treble 
V:3 bass 
V:4 bass 
V:1
 A4 c2 B2 | A6 A2 | A2 G2 A2 B2 | F4 E4 | A4 F2 E2 | F2 A2 e2 d2 | c6 B2 | A8 | A4 c2 B2 | A6 A2 | %10
 B2 f2 e2 d2 | d4 ^c3 c | d4 e4 | f4 c4 | G3 ^F G2 A2 | F8 |] %16
V:2
 F4 G2 F2 | F6 E2 | D2 D2 D2 D2 | C4 C4 | E4 C2 C2 | C2 F2 F2 F2 | (G2 E2 F2) G2 | F8 | F4 G2 F2 | %9
 F6 E2 | F2 B2 B2 B2 | A4 A3 A | F4 G4 | F4 F4 | E3 ^D E2 E2 | C8 |] %16
V:3
 C4 E2 D2 | C6 ^C2 | B,2 B,2 A,2 G,2 | A,4 G,4 | B,4 A,2 G,2 | A,2 C2 A,2 A,2 | C6 C2 | C8 | %8
 C4 E2 D2 | C6 ^C2 | D2 D2 E2 F2 | F4 E3 E | B,4 B,4 | A,4 A,4 | B,3 A, B,2 C2 | A,8 |] %16
V:4
 F,4 F,2 F,2 | F,6 A,,2 | B,,2 B,,2 B,,2 B,,2 | C,4 C,4 | C,4 C,2 C,2 | C,2 C,2 C,2 C,2 | %6
 (E,2 C,2 D,2) E,2 | F,8 | F,4 F,2 F,2 | F,6 A,,2 | D,2 F,2 F,2 F,2 | A,4 A,3 A, | B,4 C,4 | %13
 C,4 C,4 | C,3 C, C,2 C,2 | F,8 |] %16

